images/svg/discovery-1.svg

<svg width="71" height="72" viewBox="0 0 71 72" fill="none" xmlns="http://www.w3.org/2000/svg">
<path fill-rule="evenodd" clip-rule="evenodd" d="M58.0481 13.1037C65.3077 20.4657 69.8383 29.7448 70.8057 39.2263C71.7952 48.8834 68.9819 57.6044 62.8937 63.774C57.5999 69.1425 50.4112 72 42.3706 72C41.1592 72 39.93 71.9325 38.6831 71.802C29.3334 70.821 20.1834 66.2265 12.9238 58.8644C-2.19016 43.5373 -4.36451 20.8122 8.07807 8.19415C20.5118 -4.42828 42.9297 -2.21877 58.0481 13.1037ZM32.5284 40.0363C38.3592 41.6563 43.7285 43.1728 48.6806 47.0069C52.5639 50.0144 55.3299 53.8364 58.1269 57.7013C59.4146 59.4806 60.7088 61.2689 62.1216 62.9911C60.4887 48.6585 53.3843 36.3464 39.0248 32.1209C38.8009 32.0552 38.5778 31.9897 38.3553 31.9245C32.077 30.0836 26.3438 28.4026 21.1197 24.0479C17.76 21.2453 15.2865 17.7667 12.799 14.2682C11.5279 12.4806 10.2532 10.6878 8.85462 8.97729C10.5586 23.5347 17.8493 35.9548 32.5284 40.0363Z" fill="#FDD6BA"/>
</svg>

<svg width="71" height="72" fill="none" xmlns="http://www.w3.org/2000/svg"><path fill-rule="evenodd" clip-rule="evenodd" d="M58.048 13.104c7.26 7.362 11.79 16.64 12.758 26.122.99 9.657-1.824 18.378-7.912 24.548C57.6 69.142 50.41 72 42.37 72c-1.212 0-2.441-.067-3.688-.198-9.35-.981-18.5-5.576-25.76-12.938C-2.19 43.537-4.364 20.812 8.079 8.194c12.434-12.622 34.852-10.413 49.97 4.91zm-25.52 26.932c5.831 1.62 11.2 3.137 16.153 6.97 3.883 3.008 6.649 6.83 9.446 10.695 1.288 1.78 2.582 3.568 3.995 5.29-1.633-14.333-8.738-26.645-23.097-30.87l-.67-.197c-6.278-1.84-12.011-3.521-17.235-7.876-3.36-2.803-5.834-6.281-8.321-9.78-1.271-1.787-2.546-3.58-3.944-5.29 1.704 14.557 8.994 26.977 23.673 31.058z" fill="#FDD6BA"/></svg>
